!!!OTL: STUDIO AUF EINER REIS
!!!ARE: Europa, Mitteleuropa, Deutschland
!!!SCT: B0564A
!!!YEM: Copyright 1995, estate of Helmut Schaffrath.
**kern
*ICvox
*Ivox
*M2/4
*k[f#]
*G:
=1
{8.b
16g
8g
8e
=2
8e
8d
4d}
=3
{8d
8cc
4a
=4
8d
8b
4g}
=5
{8.b
16g
8g
8e
=6
8e
8d
4d}
=7
{8d
8cc
8a
8f#
=8
4g
4r}
=9
{8a
8b
8a
8b
=10
8f#
8b
4a}
=11
{8a
8a
8b
8cc#
=12
8dd
8d
4d}
=13
{8d
8d
8g
8g
=14
8b
8b
4dd}
=15
{8cc
8d
4a
=16
8b
8d
4g}
=17
{8d
8d
8g
8g
=18
8b
8b
4dd}
=19
{8cc
8d
8a
8d
=20
4g
4r}
==
!!!AGN: Studenten -, Wander - Lied
!!!ONB: ESAC (Essen Associative Code) Database: BOEHME
!!!AMT: simple duple
!!!AIN: vox
!!!EED: Helmut Schaffrath
!!!EEV: 1.0
*-
